public/img/brief-list-icon-5.svg

<svg width="23" height="33" viewBox="0 0 23 33" fill="none" xmlns="http://www.w3.org/2000/svg">
<path d="M20.34 0.0488281H2.66C1.19319 0.0488281 0 1.24202 0 2.70883V29.8155C0 31.2823 1.19319 32.4755 2.66 32.4755H20.34C21.8068 32.4755 23 31.2823 23 29.8155V2.70883C23 1.24202 21.8068 0.0488281 20.34 0.0488281ZM8.65 1.94883H14.35V2.89883C14.35 3.42281 13.924 3.84883 13.4 3.84883H9.6C9.07602 3.84883 8.65 3.42281 8.65 2.89883V1.94883ZM21.1 29.8155C21.1 30.2346 20.7591 30.5755 20.34 30.5755H2.66C2.24091 30.5755 1.9 30.2346 1.9 29.8155V2.70883C1.9 2.28974 2.24091 1.94883 2.66 1.94883H6.75V2.89883C6.75 4.47029 8.02854 5.74883 9.6 5.74883H13.4C14.9715 5.74883 16.25 4.47029 16.25 2.89883V1.94883H20.34C20.7591 1.94883 21.1 2.28974 21.1 2.70883V29.8155Z" fill="#1B91E3"/>
<path d="M7.7 17.1483H15.3C15.8245 17.1483 16.25 16.7231 16.25 16.1983V10.8323C16.25 10.4954 16.0716 10.1839 15.7814 10.0132L11.9814 7.77947C11.6836 7.60431 11.314 7.6048 11.0166 7.7807L7.21659 10.0273C6.92738 10.1983 6.75 10.5092 6.75 10.8452V16.1983C6.75 16.7231 7.17527 17.1483 7.7 17.1483ZM8.65 11.387L11.5012 9.70124L14.35 11.3759V15.2483H12.45V13.9817C12.45 13.457 12.0247 13.0317 11.5 13.0317C10.9753 13.0317 10.55 13.457 10.55 13.9817V15.2483H8.65V11.387Z" fill="#1B91E3"/>
<path d="M18.2488 19.0488H4.74883C4.2241 19.0488 3.79883 19.4743 3.79883 19.9988C3.79883 20.5236 4.2241 20.9488 4.74883 20.9488H18.2488C18.7736 20.9488 19.1988 20.5236 19.1988 19.9988C19.1988 19.4743 18.7736 19.0488 18.2488 19.0488Z" fill="#1B91E3"/>
<path d="M18.2488 22.8477H4.74883C4.2241 22.8477 3.79883 23.2732 3.79883 23.7977C3.79883 24.3224 4.2241 24.7477 4.74883 24.7477H18.2488C18.7736 24.7477 19.1988 24.3224 19.1988 23.7977C19.1988 23.2732 18.7736 22.8477 18.2488 22.8477Z" fill="#1B91E3"/>
<path d="M10.1688 26.6484H4.74883C4.2241 26.6484 3.79883 27.074 3.79883 27.5984C3.79883 28.1232 4.2241 28.5484 4.74883 28.5484H10.1688C10.6936 28.5484 11.1188 28.1232 11.1188 27.5984C11.1188 27.074 10.6936 26.6484 10.1688 26.6484Z" fill="#1B91E3"/>
</svg>

<svg viewBox="0 0 23 33" fill="none" xmlns="http://www.w3.org/2000/svg">
  <path d="M20.34.049H2.66A2.663 2.663 0 000 2.709v27.107a2.663 2.663 0 002.66 2.66h17.68a2.663 2.663 0 002.66-2.66V2.709a2.663 2.663 0 00-2.66-2.66zm-11.69 1.9h5.7v.95a.95.95 0 01-.95.95H9.6a.95.95 0 01-.95-.95v-.95zM21.1 29.815c0 .42-.34.76-.76.76H2.66a.76.76 0 01-.76-.76V2.71c0-.42.34-.76.76-.76h4.09v.95a2.853 2.853 0 002.85 2.85h3.8a2.853 2.853 0 002.85-2.85v-.95h4.09c.42 0 .76.34.76.76v27.107z" fill="#1B91E3"/>
  <path d="M7.7 17.148h7.6a.95.95 0 00.95-.95v-5.366a.95.95 0 00-.469-.819l-3.8-2.234a.95.95 0 00-.964.002l-3.8 2.246a.95.95 0 00-.467.818v5.353c0 .525.425.95.95.95zm.95-5.761l2.851-1.686 2.849 1.675v3.872h-1.9v-1.266a.95.95 0 10-1.9 0v1.266h-1.9v-3.861zM18.249 19.049h-13.5a.95.95 0 000 1.9h13.5a.95.95 0 100-1.9zM18.249 22.848h-13.5a.95.95 0 000 1.9h13.5a.95.95 0 100-1.9zM10.169 26.648h-5.42a.95.95 0 000 1.9h5.42a.95.95 0 100-1.9z" fill="#1B91E3"/>
</svg>
